X:2203
T:George White's Favourite
O:england
M:4/4
L:1/8
K:G
e~B3 eBdB|A2BG AGEF|~G3A BGBd|gedB A2Bd|
e~B3 eBdB|A2BG AGEF|G2Bd gedB|1AGAB G2Bd:|2AGAB G3b|
gede gaba|~g3a gedB|dega bgag|eaag a2ga|
bgag d3e|gede gaba|~g3d egdB|1AGAB ~G3b:|2AGAB G2Bd|


